local/share/icons/dracula-icons-main/16/places/folder_download.svg

<?xml version="1.0" encoding="UTF-8"?>
<svg xmlns="http://www.w3.org/2000/svg" xmlns:xlink="http://www.w3.org/1999/xlink" width="16" height="16" viewBox="0 0 16 16">
<path fill-rule="nonzero" fill="rgb(100%, 100%, 100%)" fill-opacity="1" d="M 8 1 C 7.445312 1 7 1.445312 7 2 L 7 7.585938 L 5.171875 5.757812 C 4.78125 5.367188 4.148438 5.367188 3.757812 5.757812 C 3.367188 6.148438 3.367188 6.78125 3.757812 7.171875 L 7.28125 10.699219 C 7.378906 10.792969 7.492188 10.871094 7.617188 10.925781 C 7.863281 11.023438 8.132812 11.027344 8.375 10.929688 C 8.378906 10.925781 8.378906 10.925781 8.382812 10.925781 C 8.503906 10.875 8.617188 10.800781 8.707031 10.707031 L 12.246094 7.171875 C 12.636719 6.78125 12.636719 6.148438 12.246094 5.757812 C 11.851562 5.367188 11.222656 5.367188 10.832031 5.757812 L 9 7.585938 L 9 2 C 9 1.445312 8.554688 1 8 1 Z M 2 11 L 2 13 C 2 14.109375 2.890625 15 4 15 L 12 15 C 13.109375 15 14 14.109375 14 13 L 14 11 L 12 11 L 12 13 L 4 13 L 4 11 Z M 2 11 "/>
</svg>

<svg width="16" height="16" version="1.1" viewBox="0 0 16 16" xmlns="http://www.w3.org/2000/svg">
 <defs>
  <style id="current-color-scheme" type="text/css">.ColorScheme-Text { color:#FFFFFF; } .ColorScheme-Highlight { color:#5294e2; }</style>
 </defs>
 <path style="fill:currentColor" class="ColorScheme-Text" d="m8 1c-0.5535 0-1 0.4465-1 1v5.5859l-1.8281-1.8281c-0.39174-0.39174-1.0223-0.39174-1.4141 0s-0.39174 1.0223 0 1.4141l3.5254 3.5254c0.094512 0.097213 0.2083 0.17423 0.33594 0.22656 0.24227 0.10054 0.51501 0.10271 0.75781 0.003906 0.0021245-8.68e-4 0.0037396-0.003022 0.0058594-0.003906 0.12252-0.050509 0.23406-0.12468 0.32617-0.2168l3.5352-3.5352c0.39174-0.39174 0.39174-1.0223 0-1.4141-0.39174-0.39174-1.0223-0.39174-1.4141 0l-1.8301 1.8281v-5.5859c0-0.5535-0.4465-1-1-1zm-6 10v2c0 1.108 0.892 2 2 2h8c1.108 0 2-0.892 2-2v-2h-2v2h-8v-2h-2z"/>
</svg>
